public/images/case-studies/jetbrains-logo.svg

<svg width="223" height="64" viewBox="0 0 223 64" fill="none" xmlns="http://www.w3.org/2000/svg">
<rect width="223" height="64" fill="white"/>
<g clip-path="url(#clip0_2_233)">
<path d="M64.7182 38.4394C64.7182 39.0742 64.5841 39.6343 64.3158 40.1272C64.0476 40.6202 63.675 41.0011 63.1831 41.2699C62.6913 41.5388 62.1399 41.6733 61.5064 41.6733H58.3691V46.2516H62.1696C63.6004 46.2516 64.8822 45.9304 66.0223 45.2881C67.1624 44.6458 68.0567 43.757 68.705 42.6292C69.3533 41.5014 69.6812 40.2318 69.6812 38.8128V23.7633H64.7182V38.4394ZM78.0799 37.0726H88.4749V32.8677H78.0799V28.0952H89.5704V23.7633H73.2432V46.2441H89.8907V41.9123H78.0799V37.0726ZM91.4487 28.2222H98.0953V46.2367H103.059V28.2222H109.676V23.7633H91.4412V28.2297L91.4487 28.2222ZM126.636 34.9738C126.249 34.7647 125.824 34.6079 125.384 34.4884C125.72 34.3913 126.041 34.2718 126.338 34.1224C127.159 33.6967 127.807 33.0992 128.268 32.3299C128.731 31.5606 128.969 30.6794 128.969 29.6786C128.969 28.5358 128.656 27.5127 128.038 26.6089C127.419 25.7127 126.547 25.0107 125.429 24.5028C124.311 24.0024 123.03 23.7484 121.599 23.7484H111.635V46.2291H121.793C123.298 46.2291 124.64 45.9678 125.824 45.4374C127.002 44.9072 127.918 44.1753 128.574 43.2268C129.223 42.2857 129.55 41.2102 129.55 40.0002C129.55 38.8875 129.297 37.8941 128.783 37.0128C128.268 36.1315 127.561 35.4519 126.644 34.9664L126.636 34.9738ZM116.457 27.535H120.862C121.472 27.535 122.009 27.6471 122.479 27.8637C122.948 28.0803 123.313 28.3939 123.574 28.8047C123.835 29.208 123.969 29.686 123.969 30.2313C123.969 30.7765 123.835 31.2918 123.574 31.7175C123.313 32.1432 122.948 32.4644 122.479 32.6959C122.009 32.9274 121.472 33.0395 120.862 33.0395H116.457V27.5276V27.535ZM124.043 41.1355C123.761 41.5612 123.358 41.8899 122.844 42.1214C122.322 42.3529 121.733 42.465 121.055 42.465H116.457V36.6991H121.055C121.718 36.6991 122.307 36.8261 122.829 37.0726C123.343 37.319 123.753 37.6626 124.036 38.1107C124.319 38.5588 124.468 39.0667 124.468 39.6417C124.468 40.2168 124.326 40.7098 124.043 41.1355ZM146.191 37.1548C147.435 36.5572 148.396 35.7132 149.082 34.6303C149.768 33.5473 150.11 32.2926 150.11 30.8587C150.11 29.4247 149.775 28.2147 149.105 27.1392C148.433 26.0637 147.48 25.2347 146.251 24.6447C145.02 24.0546 143.597 23.7633 141.972 23.7633H132.151V46.2441H137.122V38.0584H140.356L144.909 46.2441H150.58L145.453 37.4535C145.707 37.3639 145.959 37.2667 146.198 37.1548H146.191ZM144.581 32.5615C144.305 33.032 143.911 33.398 143.396 33.6445C142.882 33.8984 142.278 34.0254 141.586 34.0254H137.114V27.8039H141.586C142.278 27.8039 142.882 27.9309 143.396 28.1773C143.911 28.4238 144.305 28.7898 144.581 29.2528C144.856 29.7159 144.999 30.2686 144.999 30.8959C144.999 31.5233 144.856 32.076 144.581 32.5465V32.5615ZM159.992 23.7633L151.98 46.2441H157.026L158.613 41.2849H166.93L168.628 46.2441H173.576L165.372 23.7633H159.992ZM159.738 37.5207L162.316 29.589L162.622 28.1475L162.928 29.589L165.685 37.5207H159.738ZM175.223 46.2441H180.35V23.7633H175.223V46.2441ZM198.436 38.9696L188.786 23.7633H183.95V46.2441H188.481V31.0379L198.079 46.2441H202.967V23.7633H198.436V38.9696ZM222.029 36.4527C221.545 35.5191 220.859 34.7349 219.987 34.1C219.115 33.4652 218.11 33.0469 216.977 32.8303L213.162 32.0461C212.565 31.9042 212.089 31.6578 211.739 31.2993C211.388 30.9408 211.209 30.4926 211.209 29.9624C211.209 29.4769 211.336 29.0587 211.596 28.7002C211.85 28.3417 212.215 28.0653 212.677 27.8637C213.139 27.662 213.676 27.5649 214.287 27.5649C214.898 27.5649 215.449 27.6695 215.919 27.8786C216.388 28.0877 216.753 28.379 217.014 28.7599C217.275 29.1408 217.409 29.5666 217.409 30.052H222.38C222.35 28.745 221.985 27.5873 221.299 26.5865C220.614 25.5783 219.652 24.7941 218.43 24.2264C217.208 23.6588 215.807 23.375 214.242 23.375C212.677 23.375 211.291 23.6663 210.076 24.2563C208.862 24.8464 207.908 25.6604 207.23 26.7061C206.552 27.7516 206.209 28.9392 206.209 30.2761C206.209 31.3591 206.425 32.3374 206.865 33.2037C207.304 34.0776 207.923 34.8021 208.72 35.3772C209.525 35.9523 210.449 36.3556 211.507 36.5797L215.546 37.4161C216.209 37.573 216.731 37.8642 217.118 38.2824C217.506 38.7007 217.692 39.2161 217.692 39.8434C217.692 40.3438 217.551 40.7994 217.268 41.1953C216.984 41.5911 216.589 41.8973 216.083 42.1139C215.576 42.3305 214.979 42.435 214.294 42.435C213.609 42.435 212.961 42.3156 212.402 42.0765C211.843 41.8376 211.41 41.494 211.105 41.0459C210.792 40.6053 210.643 40.0899 210.643 39.5148H205.673C205.694 40.9189 206.067 42.1513 206.805 43.2268C207.535 44.2948 208.541 45.1313 209.823 45.7288C211.105 46.3263 212.573 46.625 214.227 46.625C215.881 46.625 217.372 46.3188 218.654 45.7063C219.943 45.094 220.941 44.25 221.664 43.1745C222.387 42.099 222.745 40.8816 222.745 39.5223C222.745 38.4094 222.499 37.3863 222.014 36.4452L222.029 36.4527Z" fill="black"/>
<path d="M15.2209 10.745L2.73886 23.255C0.987785 25.01 0 27.395 0 29.885V52.25C0 54.32 1.67624 56 3.74161 56H26.0566C28.541 56 30.9132 55.01 32.6717 53.255L45.1538 40.745C46.9048 38.99 47.8926 36.605 47.8926 34.115V11.75C47.8926 9.68 46.2164 8 44.151 8H21.836C19.3516 8 16.9794 8.99 15.2209 10.745Z" fill="url(#paint0_linear_2_233)"/>
<path d="M35.9195 20H5.98657V50H35.9195V20Z" fill="black"/>
<path d="M22.4497 43.25H9.72821V46.25H22.4497V43.25Z" fill="white"/>
</g>
<defs>
<linearGradient id="paint0_linear_2_233" x1="0.636075" y1="55.04" x2="46.962" y2="9.46124" gradientUnits="userSpaceOnUse">
<stop stop-color="#FF9419"/>
<stop offset="0.43" stop-color="#FF021D"/>
<stop offset="0.99" stop-color="#E600FF"/>
</linearGradient>
<clipPath id="clip0_2_233">
<rect width="223" height="48" fill="white" transform="translate(0 8)"/>
</clipPath>
</defs>
</svg>

<svg xmlns="http://www.w3.org/2000/svg" width="223" height="64" fill="none" viewBox="0 0 223 64">
    <g clip-path="url(#a)">
        <path fill="#000"
              d="M64.718 38.44q0 .95-.402 1.687c-.268.493-.641.874-1.133 1.143s-1.043.403-1.677.403H58.37v4.579h3.8q2.145 0 3.853-.964a7 7 0 0 0 2.683-2.659c.648-1.128.976-2.397.976-3.816v-15.05h-4.963zm13.362-1.367h10.395v-4.205H78.08v-4.773h11.49v-4.332H73.243v22.481h16.648v-4.332H78.08zm13.369-8.85h6.646v18.014h4.964V28.222h6.617v-4.459H91.441v4.467zm35.187 6.75a6 6 0 0 0-1.252-.485c.336-.097.657-.216.954-.366a4.75 4.75 0 0 0 1.93-1.792c.463-.77.701-1.65.701-2.651q-.002-1.714-.931-3.07-.93-1.344-2.609-2.106c-1.118-.5-2.399-.755-3.83-.755h-9.964V46.23h10.158c1.505 0 2.847-.261 4.031-.792 1.178-.53 2.094-1.262 2.75-2.21q.975-1.412.976-3.227c0-1.112-.253-2.106-.767-2.987a5.3 5.3 0 0 0-2.139-2.047zm-10.179-7.438h4.405q.913.002 1.617.329.704.325 1.095.94.393.608.395 1.427c0 .545-.134 1.06-.395 1.486a2.6 2.6 0 0 1-1.095.979q-.704.345-1.617.343h-4.405v-5.511zm7.586 13.6c-.282.426-.685.755-1.199.986-.522.232-1.111.344-1.789.344h-4.598v-5.766h4.598q.993.002 1.774.374c.514.246.924.59 1.207 1.038s.432.956.432 1.53c0 .576-.142 1.069-.425 1.495m22.148-3.98q1.864-.899 2.891-2.525c.686-1.083 1.028-2.337 1.028-3.771s-.335-2.644-1.005-3.72q-1.01-1.61-2.854-2.494c-1.231-.59-2.654-.882-4.279-.882h-9.821v22.481h4.971v-8.186h3.234l4.553 8.186h5.671l-5.127-8.79c.254-.09.506-.187.745-.3zm-1.61-4.593c-.276.47-.67.836-1.185 1.083q-.772.38-1.81.38h-4.472v-6.221h4.472q1.038.002 1.81.373a2.7 2.7 0 0 1 1.185 1.076c.275.463.418 1.016.418 1.643s-.143 1.18-.418 1.65zm15.411-8.799-8.012 22.481h5.046l1.587-4.96h8.317l1.698 4.96h4.948l-8.204-22.48zm-.254 13.758 2.578-7.932.306-1.441.306 1.441 2.757 7.932zm15.485 8.723h5.127v-22.48h-5.127zm23.213-7.274-9.65-15.207h-4.836v22.481h4.531V31.038l9.598 15.206h4.888v-22.48h-4.531zm23.593-2.517a6.7 6.7 0 0 0-2.042-2.353c-.872-.635-1.877-1.053-3.01-1.27l-3.815-.784c-.597-.142-1.073-.388-1.423-.747a1.84 1.84 0 0 1-.53-1.337c0-.485.127-.903.387-1.262.254-.358.619-.635 1.081-.836q.693-.301 1.61-.3c.611 0 1.162.105 1.632.315q.703.312 1.095.88c.261.382.395.808.395 1.293h4.971c-.03-1.307-.395-2.465-1.081-3.465-.685-1.009-1.647-1.793-2.869-2.36-1.222-.568-2.623-.852-4.188-.852s-2.951.291-4.166.881c-1.214.59-2.168 1.404-2.846 2.45s-1.021 2.233-1.021 3.57q-.002 1.626.656 2.928a5.9 5.9 0 0 0 1.855 2.173c.805.575 1.729.979 2.787 1.203l4.039.836q.993.237 1.572.866c.388.419.574.934.574 1.561 0 .5-.141.956-.424 1.352q-.426.594-1.185.919c-.507.217-1.104.321-1.789.321s-1.333-.12-1.892-.358q-.839-.36-1.297-1.031c-.313-.44-.462-.956-.462-1.531h-4.97c.021 1.404.394 2.636 1.132 3.712q1.095 1.603 3.018 2.502 1.923.896 4.404.896c1.654 0 3.145-.306 4.427-.919 1.289-.612 2.287-1.456 3.01-2.532q1.083-1.612 1.081-3.652a6.6 6.6 0 0 0-.731-3.077z"/>
        <path fill="url(#b)"
              d="M15.22 10.745 2.74 23.255A9.4 9.4 0 0 0 0 29.885V52.25C0 54.32 1.676 56 3.742 56h22.315c2.484 0 4.856-.99 6.615-2.745l12.482-12.51a9.4 9.4 0 0 0 2.739-6.63V11.75c0-2.07-1.677-3.75-3.742-3.75H21.836c-2.484 0-4.857.99-6.615 2.745"/>
        <path fill="#000" d="M35.92 20H5.986v30h29.932z"/>
        <path fill="#fff" d="M22.45 43.25H9.728v3H22.45z"/>
    </g>
    <defs>
        <linearGradient id="b" x1=".636" x2="46.962" y1="55.04" y2="9.461" gradientUnits="userSpaceOnUse">
            <stop stop-color="#ff9419" offset=""/>
            <stop offset=".43" stop-color="#ff021d"/>
            <stop offset=".99" stop-color="#e600ff"/>
        </linearGradient>
        <clipPath id="a">
            <path fill="#fff" d="M0 8h223v48H0z"/>
        </clipPath>
    </defs>
</svg>
